X:19115
T:Xiringosa (CT 048)
R:Xiringosa
C:Tradicional
S:Música Tradicional Asturiana, (C) Tello & Tito. Asturies, 2001.
S:http://pagina.de/MusTradAst <telloytito@asturies.org>
N:Canción de baile, transcrita en Uviéu.
N:Se conoce este baile con el nombre de La Xiringosa, y se ejecuta del modo siguiente:
N:colocados en círculo hombres y mujeres, sin que sea precisa una distribución alternativa, comienzan a cantar, acompañándose con un golpe de palmas en cada parte del compás.
N:En el centro del círculo se encuentra ya de antemano una persona, hombre o mujer, la cual ejecuta un baile de movimientos sencillos:
N:da un pequeño salto a cada golpe de palmas, llevando los brazos en alto y produciendo con los dedos un sonido que imita a las castañuelas.
N:Al decir los cantadores «buscan compañía», el bailador designa a una de las personas que forman el corro, avanzando ésta hacia el centro del círculo, a la vez que los cantadores dicen «salga usté, don José» (igual si es hombre que mujer).
N:Al cantar el verso «déjalo solo» (o «déjala sola») si se refiere a mujer), abandona el centro del círculo el primer bailador, uniéndose al corro.
N:Queda bailando sola la nueva persona y se repite la diversión en la misma forma.
O:Uviéu
A:Asturies
Z:Cancioneru de Torner 048
M:6/8
L:1/8
Q:3/8=116
W:Que la quiero ver bailar,
W:saltar y brincar,
W:dar vueltas al aire,
W:con la geringosa de un fraile,
W:con su geringosa,
W:por lo bien que bailas,
W:hermosa, busca compaña.
W:
W:Salga usté, don José,
W:que lo quiero ver bailar,
W:saltar y brincar,
W:dar vueltas al aire,
W:con la geringosa de un fraile,
W:con su geringosa,
W:por lo bien que lo bailas, hermosa,
W:déjalo solo, solo, solo.
K:C
Bc
|d2 d d2 B|G2 G AAA|G2 G AAA|BB z2 Bc|
d2 d dBA|GGG AAA|BB z2 Bc|
ddd dBA|G2 G AAA|G2 G A2 A|G3 A2 A|G2 z2 Bc|
d2 d d2 B|G2 G AAA|G2 G AAA|BB z2 Bc|
d2 d dBA|GGG AAA|BB z2 Bc|
ddd dBA|G2 G AAA|G2 G A2 A|GG z4 :||


